static/img/icons/flipper.svg

<svg enable-background="new 0 0 75 75" version="1.1" viewBox="0 0 75 75" xmlns="http://www.w3.org/2000/svg">
 <style type="text/css">.st0{fill:#FFFFFF;}
	.st1{fill:#BC83FB;}
	.st2{fill-rule:evenodd;clip-rule:evenodd;}
	.st3{fill-rule:evenodd;clip-rule:evenodd;fill:#BC83FB;}
	.st4{fill-rule:evenodd;clip-rule:evenodd;fill:#8747CC;}
	.st5{fill-rule:evenodd;clip-rule:evenodd;fill:#FFFFFF;}</style>
 <ellipse class="st0" transform="matrix(.7071 -.7071 .7071 .7071 -15.53 37.5)" cx="37.5" cy="37.5" rx="38.92" ry="36.03"/>
 <path class="st1" d="m49.95 37.86c6.67 0 12.11 5.43 12.11 12.11s-5.43 12.11-12.11 12.11h-24.91c-6.67 0-12.11-5.43-12.11-12.11 0-6.67 5.43-12.11 12.11-12.11h24.91zm0-2.62h-24.91c-8.13 0-14.72 6.59-14.72 14.72s6.59 14.72 14.72 14.72h24.91c8.13 0 14.72-6.59 14.72-14.72s-6.59-14.72-14.72-14.72z"/>
 <path class="st2" d="m35.89 49.94c0 5.67-4.59 10.26-10.26 10.26s-10.26-4.59-10.26-10.26 4.59-10.26 10.26-10.26c1.63 0 3.17 0.38 4.53 1.05 2.45 1.21 4.34 3.36 5.21 5.98 0.34 1.02 0.52 2.1 0.52 3.23z"/>
 <path class="st2" d="m35.37 46.72c-2.85 1.51-7.65 3.42-14.02 3.69l8.81-9.67c2.44 1.2 4.34 3.35 5.21 5.98z"/>
 <path class="st3" d="m55.21 31.88c-22.99 0-18.78 12.55-34.05 18.55-0.95 0.37-1.89-0.54-1.56-1.51 2.62-7.49 2.86-18.12 2.75-27.82-0.14-10.78 10.55-10.78 16.45-10.78h16.41c3.63 0 6.23 1.84 7.78 4.45 3.74 6.31 1.3 17.11-7.78 17.11z"/>
 <path class="st4" d="m55.21 31.88c-20.85 0-19.33 10.32-30.25 16.72-0.45 0.26-0.94-0.3-0.6-0.69 4.85-5.79 4.16-17.08 9.05-25.16 5.34-8.83 18.75-7.98 29.58-7.98 3.74 6.3 1.3 17.11-7.78 17.11z"/>
 <ellipse class="st5" transform="matrix(.9758 -.2185 .2185 .9758 -4.276 11.33)" cx="49.1" cy="25" rx="6.97" ry="4.03"/>
 <ellipse class="st5" transform="matrix(.5786 -.8156 .8156 .5786 -13.72 42.92)" cx="34.67" cy="34.73" rx="4.74" ry="2.59"/>
</svg>

<?xml version="1.0" encoding="utf-8"?>
<!-- Generator: Adobe Illustrator 27.0.0, SVG Export Plug-In . SVG Version: 6.00 Build 0)  -->
<svg version="1.1" id="Layer_1" xmlns="http://www.w3.org/2000/svg" xmlns:xlink="http://www.w3.org/1999/xlink" x="0px" y="0px"
	 viewBox="0 0 75 75" style="enable-background:new 0 0 75 75;" xml:space="preserve">
<style type="text/css">
	.st0{fill:#FFFFFF;}
	.st1{fill:#BC83FB;}
	.st2{fill-rule:evenodd;clip-rule:evenodd;}
	.st3{fill-rule:evenodd;clip-rule:evenodd;fill:#BC83FB;}
	.st4{fill-rule:evenodd;clip-rule:evenodd;fill:#8747CC;}
	.st5{fill-rule:evenodd;clip-rule:evenodd;fill:#FFFFFF;}
</style>
<g>
	<ellipse transform="matrix(0.7071 -0.7071 0.7071 0.7071 -15.533 37.5)" class="st0" cx="37.5" cy="37.5" rx="38.92" ry="36.03"/>
	<g>
		<g>
			<path class="st1" d="M49.95,37.86c6.67,0,12.11,5.43,12.11,12.11s-5.43,12.11-12.11,12.11H25.04c-6.67,0-12.11-5.43-12.11-12.11
				c0-6.67,5.43-12.11,12.11-12.11H49.95z M49.95,35.24H25.04c-8.13,0-14.72,6.59-14.72,14.72s6.59,14.72,14.72,14.72h24.91
				c8.13,0,14.72-6.59,14.72-14.72S58.08,35.24,49.95,35.24z"/>
			<path class="st2" d="M35.89,49.94c0,5.67-4.59,10.26-10.26,10.26s-10.26-4.59-10.26-10.26c0-5.67,4.59-10.26,10.26-10.26
				c1.63,0,3.17,0.38,4.53,1.05c2.45,1.21,4.34,3.36,5.21,5.98C35.71,47.73,35.89,48.81,35.89,49.94z"/>
		</g>
		<path class="st2" d="M35.37,46.72c-2.85,1.51-7.65,3.42-14.02,3.69l8.81-9.67C32.6,41.94,34.5,44.09,35.37,46.72z"/>
		<g>
			<path class="st3" d="M55.21,31.88c-22.99,0-18.78,12.55-34.05,18.55c-0.95,0.37-1.89-0.54-1.56-1.51
				c2.62-7.49,2.86-18.12,2.75-27.82C22.21,10.32,32.9,10.32,38.8,10.32h16.41c3.63,0,6.23,1.84,7.78,4.45
				C66.73,21.08,64.29,31.88,55.21,31.88z"/>
			<path class="st4" d="M55.21,31.88c-20.85,0-19.33,10.32-30.25,16.72c-0.45,0.26-0.94-0.3-0.6-0.69
				c4.85-5.79,4.16-17.08,9.05-25.16c5.34-8.83,18.75-7.98,29.58-7.98C66.73,21.07,64.29,31.88,55.21,31.88z"/>
			<ellipse transform="matrix(0.9758 -0.2185 0.2185 0.9758 -4.2756 11.3302)" class="st5" cx="49.1" cy="25" rx="6.97" ry="4.03"/>
			
				<ellipse transform="matrix(0.5786 -0.8156 0.8156 0.5786 -13.7171 42.9161)" class="st5" cx="34.67" cy="34.73" rx="4.74" ry="2.59"/>
		</g>
	</g>
</g>
</svg>
